X:1
T:Title
%%score { ( 1 4 ) | ( 2 3 ) }
L:1/8
M:4/4
K:A
V:1 treble nm="Grand Piano"
V:4 treble 
V:2 bass 
V:3 bass 
V:1
 z4 z2[Q:1/4=100] [CE]2 | [CA]2 [B,G][CA] [DB]2 [CA]2 | d4 d2 c2 | B2 A2 G2 A2 | c4 B2 [EB]2 | %5
 [Ee]3 [Ee] [Ec]2 [EA]2 | [DF]4 [DF]2 [DG]2 | A2 c2 c2 B2 | [DB]4 [CA]2 [CE]2 | %9
 [CE]3 [CE] [CF]2 [CE]2 | E4 ^D2 DE | [B,^DF]2 [B,EG]2 [B,FA]2 [B,FA]2 | [FA]4 G2 z2 | %13
 z2 [A,D]2 [A,C]2 [A,FA]2 | A2- [E,A]2- [E,CA]2 z2 | z2 [A,D]2 [A,C]2 [A,FA]2 | [A,E]2 D2 z2 E2 | %17
 [ce]3 [ce] [ce]2 [Fe]2 | [=Ge]2 [Fd]2 [Ec]2 [FB]2 | B3 A A2 G2 |[M:7/8] B- B3 [CA]3 |] %21
V:2
 z4 z2 [A,,A,]2 | [A,,E,]2 [A,,E,]2 [A,,A,]2 [A,,A,]2 | [A,F]4 [A,F]2[K:bass] [A,E]2 | %3
 [F,B,^D]2 [F,B,D]2 [F,B,D]2 [^E,B,D]2 | A,4 z4 | [C,A,]3 [C,A,] [A,,A,]2 [C,A,]2 | %6
 [D,A,]4 [D,A,]2 [B,,B,]2 | [E,CE]2 [E,A,E]2 [E,G,E]2 [E,G,D]2 | [E,G,]4 [A,,A,]2 [A,,A,]2 | %9
 [A,,A,]3 [A,,A,] [A,,A,]2 [A,,A,]2 | z4 z2 .B,2 | B,,2 B,,2 B,,C, ^D,2 | z4[K:treble] E2 E2 | %13
 A6[K:bass] z2 | C,2 B,,2 A,,2[K:treble] E2 | A6[K:bass] z2 | C,2 B,,2 A,,2 [A,C]=G, | %17
 [F,^A,E]3 [F,A,E] [F,A,F]2 [F,A,]2 | [^A,,C]2 [B,,B,]2 [C,F,]2 [D,D]2 | %19
 [E,CE]3 [E,CE] [E,B,D]2 [E,B,D]2 |[M:7/8] [E,G,D]- [E,G,D]3 [A,,A,]3 |] %21
V:3
 x8 | x8 | x6[K:bass] x2 | x8 | [E,E]4- [E,G,E]2 [D,G,]2 | x8 | x8 | x8 | x8 | x8 | %10
 [B,,F,B,]4 [B,,F,B,]2 [B,,F,]-[B,,F,C] | x8 | E,6[K:treble] z2 | z2[K:bass] F,2 E,2 D,2 | %14
 x6[K:treble] x2 | z2[K:bass] F,2 E,2 D,2 | x8 | x8 | x8 | x8 |[M:7/8] x7 |] %21
V:4
 x8 | x8 | x8 | x8 | x8 | x8 | x8 | x8 | x8 | x8 | x8 | x8 | B,6 z2 | x8 | [A,E]2 D2 z4 | x8 | %16
 A2- [E,A]2- [E,CA]2 z B, | x8 | x8 | x8 |[M:7/8] x7 |] %21

